!!!COM: Bach, Johann Sebastian
!!!OTL: 217. Ach Gott, wie manches Herzeleid
!!!ONM: No. 217
!!!OCL: Erk
!!!SCA: BWV 153.9
!!!YOE: Riemenschneider, Albert
!!!OPR: 371 Harmonized Chorales and 69 Chorale Melodies with Figured Bass
!!!OPT: Bach Chorale Harmonizations
!!!ONB: From the end of Cantata 153
**harm	**root	**kern	**kern	**kern	**kern
!	!	!bass	!tenor	!alto	!sprno
*Iorgan	*Iorgan	*Iorgan	*Iorgan	*Iorgan	*Iorgan
*k[f#]	*k[f#]	*k[f#]	*k[f#]	*k[f#]	*k[f#]
*G:	*G:	*G:	*G:	*G:	*G:
*M3/4	*M3/4	*M3/4	*M3/4	*M3/4	*M3/4
*MM60	*MM60	*MM60	*MM60	*MM60	*MM60
=1-	=1-	=1-	=1-	=1-	=1-
I	4CC	4GG	4D	4B	4g
Ib	4CC	4BB	4G	4d	4g
I	4CC	4GG	4B	4d	4g
=2	=2	=2	=2	=2	=2
IV	4FF	2C	4G	4c	4e
V7d	4GG	.	4A	4d	4f#
Ib	4CC	4BB	4B	4d	4g
=3	=3	=3	=3	=3	=3
Vb/V	2DD	2C#	2A	2e	4a
.	.	.	.	.	4g
V	4GG	4D	4A	4d	4f#
=4	=4	=4	=4	=4	=4
V/V;	2.DD;	2.AA;	2.A;	2.c#;	2.e;
=5	=5	=5	=5	=5	=5
V/V	4DD	4AA	4A	4c#	4e
V	4GG	4D	4A	4d	4f#
Ib	4CC	4BB	4B	4d	4g
=6	=6	=6	=6	=6	=6
Vb	2GG	2FF#	2A	2d	2a
I	4CC	4GG	4B	4d	4g
=7	=7	=7	=7	=7	=7
V	4GG	4D	4A	4d	4f#
V/V	2DD	2AA	4.A	4d	2e
.	.	.	.	4c#	.
.	.	.	8G	.	.
=8	=8	=8	=8	=8	=8
V;	2.GG;	2.DD;	2.F#;	2.d;	2.d;
=9	=9	=9	=9	=9	=9
!!linebreak: 2
I	4CC	4G	4G	4d	4b
Vb/vi	4EE	4D#	4F#	4B	4b
V/vi	4EE	4BB	4B	4d#	4b
=10	=10	=10	=10	=10	=10
vi	4AA	2E	4B	4e	4g
vii7d	4BB	.	4c	4f#	4a
V7/ii	4AA	4EE	4d	4g#	4b
=11	=11	=11	=11	=11	=11
ii	4DD	4AA	4c	4a	4cc
Ib	4CC	4BB	4d	2g	2b
IV7	4FF	4C	4G	.	.
=12	=12	=12	=12	=12	=12
V;	2.GG;	2.D;	2.F#;	2.d;	2.a;
=13	=13	=13	=13	=13	=13
Ib	4CC	4BB	4G	4d	4g
viib	4BB	4AA	4C	4f#	4a
I	4CC	4GG	4D	4g	4b
=14	=14	=14	=14	=14	=14
ii7b	4DD	4C	4E	4g	2a
V	4GG	4D	4F#	4f#	.
vi	4AA	4E	4G	4B	4g
=15	=15	=15	=15	=15	=15
V7b/V	4DD	4C#	4A	4e	4g
V	2GG	4D	2A	2d	2f#
.	.	4DD	.	.	.
=16	=16	=16	=16	=16	=16
I;	2.CC;	2.GG;	2.B;	2.d;	2.g;
==	==	==	==	==	==
*-	*-	*-	*-	*-	*-
!!!CDT: 1685/3//-1750/7/28
!!!OCY: Deutschland
!!!AGN: chorale
!!!AST: Baroque
!!!AIN: vox
!!!YOY: 1941
!!!PPP: New York; London
!!!PPR: G. Schirmer
!!!ENC: David Huron
!!!EED: David Huron
!!!YEN: United States of America
!!!YER: 1992
!!!YEC: Copyright 1992 David Huron
!!!YEM: Rights to all derivative electronic formats reserved.
!!!YER: March 20, 1996
!!!AMT: simple quadruple
!!!EEV: 1.1
!!chor2scor: -l 2 -s 0.6 -o %b.pmx
